img/edit.svg

<svg fill="none" height="16" viewBox="0 0 16 16" width="16" xmlns="http://www.w3.org/2000/svg"><path d="m12.8745 5.95065-2.8334-2.8.9334-.93333c.2555-.25556.5695-.38334.942-.38334.3724 0 .6862.12778.9413.38334l.9333.93333c.2556.25556.3889.564.4.92533.0112.36134-.1111.66956-.3666.92467zm-.9667.98333-7.06665 7.06672h-2.83334v-2.8334l7.06667-7.06665z" fill="#247aae"/></svg>

<svg width="16" height="16" viewBox="0 0 16 16" fill="none" xmlns="http://www.w3.org/2000/svg">
<path d="M12.8745 5.95065L10.0411 3.15065L10.9745 2.21732C11.23 1.96176 11.544 1.83398 11.9165 1.83398C12.2889 1.83398 12.6027 1.96176 12.8578 2.21732L13.7911 3.15065C14.0467 3.40621 14.18 3.71465 14.1911 4.07598C14.2023 4.43732 14.08 4.74554 13.8245 5.00065L12.8745 5.95065ZM11.9078 6.93398L4.84115 14.0007H2.00781V11.1673L9.07448 4.10065L11.9078 6.93398Z" fill="#247AAE"/>
</svg>
